!!!COM: Chopin, Frederic
!!!CDT: 1810///-1849///
!!!OTL: Mazurka in F Minor, Op. 63, No. 2
!!!OPS: Op. 63
!!!ONM: No. 2
!!!ODT: 1846///
!!!PDT: 1847///-1848///
!!!PPP: Leipzig and London (1847); Paris (1848) and London
!!!ODE: Countess Laura Czosnowska
!!!OMD: Lento
!!!AIN: piano
**kern	**kern	**dynam
*staff2	*staff1	*staff1/2
*Ipiano	*Ipiano	*Ipiano
*clefF4	*clefG2	*clefG2
*k[b-e-a-d-]	*k[b-e-a-d-]	*k[b-e-a-d-]
*f:	*f:	*f:
*M3/4	*M3/4	*M3/4
*MM120	*MM120	*MM120
=1-	=1-	=1-
*ped	*	*
4C	4r	p
4B- 4en	[2dd-	>
*Xped	*	*
4B- 4e	.	.
=2	=2	=2
*ped	*	*
4C	(8dd-L]	.
.	8cc	.
4A- 4f	8b-	.
*Xped	*	*
.	8a-	.
4A- 4c	8g	]
.	8fJ	.
=3	=3	=3
*ped	*	*
4C	8gL	<
.	8cJ	.
4B- 4en	4.cc	.
*Xped	*	*
4B- 4e	.	.
.	8g	.
=4	=4	=4
*ped	*	*
4FF	8.a-L	.
.	16ccJk	.
4A- 4c 4f	[2ff)	[
*Xped	*	*
4A- 4d- 4f	.	.
=5	=5	=5
*ped	*	*
4GG	4ff]	.
4E- 4B- 4d-	[2ff	>
*Xped	*	*
4E- 4B- 4d-	.	.
!!LO:LB:g=original
=6	=6	=6
*ped	*	*
4AA-	(8ffL]	.
.	8ee-	.
4E- 4c	8dd-	.
.	8cc	.
4r	8b-	.
*Xped	*	*
.	8a-J	]
=7	=7	=7
*ped	*	*
4BB-	8a--L	.
.	8g-	.
*Xped	*	*
4G- 4d-	8b-	.
.	8f	.
4B- 4d-	8a-	.
.	8g-J	.
=8	=8	=8
*ped	*	*
4C	8fL)	.
.	8enJ	.
4Gn 4en	2c	.
*Xped	*	*
4G 4e	.	.
=9	=9	=9
*ped	*	*
.	(8qc	.
4CC	4dd-)	.
4B- 4en	[2dd-	.
*Xped	*	*
4B- 4e	.	.
=10	=10	=10
*ped	*	*
4C	(>8dd-L]	.
.	8cc	.
4A- 4c 4f	8b-	.
.	8a-	.
4A- 4c	8g	.
*Xped	*	*
.	8fJ	.
!!LO:LB:g=original
=11	=11	=11
*ped	*	*
4CC	8gL	<
.	8cJ	.
4B- 4en	4.cc	.
4B- 4e	.	.
*Xped	*	*
.	8g	.
=12	=12	=12
*ped	*	*
4FF	8anL	.
.	8ccJ	.
4F 4e-X	4.ff	[
4F 4An 4e-	.	.
*Xped	*	*
.	8een	.
=13	=13	=13
*ped	*	*
4BB-	8ee-L	.
.	8ddn	.
*Xped	*	*
4F 4G 4d- 4f	8dd-	.
.	8an	.
4r	8b-	.
.	8bnJ	.
=14	=14	=14
*ped	*	*
4C	8dd-L	.
.	(8qee-	.
.	8dd-)	.
*Xped	*	*
4A- 4c 4f	8cc	.
.	8g	.
4r	8a-X	.
.	8bnJ	.
!!LO:LB:g=original
=15	=15	=15
*ped	*	*
4CC	8dd-L<	.
.	8cc	.
*Xped	*	*
4G 4en	8bn	.
.	8f#	.
4B- 4c 4e	8g	.
.	8b-J	.
=16	=16	=16
*ped	*	*
4FF	8anL	.
.	8a-J)	.
*Xped	*	*
4A- 4c	2fn	.
4F 4A- 4d-	.	.
=17||	=17||	=17||
*^	*	*
4r	4r	(>2e-	.
4d-	4GG 4E-	.	.
4G 4d-	4EE- 4E-	4f	.
*v	*v	*	*
=18	=18	=18
*	*^	*
4r	8e-LM<	4ryy	.
.	8dnJ	.	.
4AA- 4E-	4e-	4c	.
4AA-^> 4E-^>	4cc^y)	4c^y	.
=19	=19	=19	=19
4r	(2b-	4r	.
*ped	*	*	*
4AA- 4E- 4B-	.	4d-X 4f	.
*Xped	*	*	*
4AA- 4E- 4B-	4cc	4d- 4g	.
*	*v	*v	*
=20	=20	=20
4r	8.a-LM<	.
.	16gJk	.
*ped	*	*
4AA- 4E- 4A-	4c 4a-)	.
*Xped	*	*
4AA-^ 4E-^ 4c^	4e-^y 4ee-^y	.
!!LO:LB:g=original
=21	=21	=21
*^	*	*
4r	4r	(>2e-	.
4G 4d-	4EE- 4E-	.	.
4G 4d-	4EE- 4E-	4f	.
*v	*v	*	*
=22	=22	=22
*	*^	*
4r	8e-LM<	4ryy	.
.	8dnJ	.	.
(8AA- 8E-L	4e-)	4c	.
8GGJ)	.	.	.
4FF 4F	4a-	[4c	.
=23	=23	=23	=23
4r	(2g	4.c]	>
4GG 4Dn	.	.	.
.	.	8Bn	.
4GG 4D	4dn)	4G	]
=24	=24	=24	=24
4r	(2g	8cL	.
.	.	8Bn	.
4GG 4Dn	.	8An	<
.	.	8BJ	.
4GG 4D	4dn)	4G	[[
=25	=25	=25	=25
*^	*	*	*
!LO:TX:a:i:t=m.d.	!	!LO:TX:i:b:t=riten.	!	!
(8A-L	4rGG	2d- (>2e-	2ryy	.
8G	.	.	.	.
8F	4rGG	.	.	.
8GJ	.	.	.	.
4ryy	4EE-^ 4E-^)	4f	[4d-	.
*v	*v	*	*	*
!!LO:LB:g=original
=26	=26	=26	=26
!	!LO:TX:b:i:t=a tempo.	!	!
4r	8e-LM	4d-]	.
.	8dnJ	.	.
4AA- 4E-	4e-	4c	.
4AA- 4E-	4cc)	4c^	.
=27	=27	=27	=27
4r	(2b-	4r	.
*ped	*	*	*
4AA- 4E- 4B-	.	4d- 4f	.
*Xped	*	*	*
4AA- 4E- 4B-	4cc	4d- 4g	.
*	*v	*v	*
=28	=28	=28
4r	8.a-L	<
.	16gJk	.
*ped	*	*
4AA- 4E- 4A-	8c 8a-L)	.
.	16r	.
.	16f (16ffJk	.
*Xped	*	*
4AA- 4E- 4c	4e- 4ee-)	.
=29	=29	=29
*	*^	*
4r	(2e-	4rA	.
4EE- 4E-	.	4G 4d-	.
4EE- 4E-	4f	4G 4d-	.
=30	=30	=30	=30
4r	8e-LM<	4ryy	.
.	16rg	.	.
.	16dnJk	.	.
4AA- 4E-	4e-	4c	.
4FF 4Dn	4a-)	[4c	.
!!LO:LB:g=original
=31	=31	=31	=31
4r	(2g	4.c]	.
4GG 4Dn	.	.	.
.	.	(8Bn	.
4GG 4D	4dn)	4G	.
=32	=32	=32	=32
4r	(2g	8cL	>
.	.	8Bn	]
4GG 4Dn	.	8An	.
.	.	8BJ)	.
4GG 4D	&(4dn&)	4G	.
=33	=33	=33	=33
4r	(2an	8g^L	.
.	.	8f#	.
*ped	*	*	*
4GG 4Dn 4An	.	8en	.
.	.	8f#J	.
*Xped	*	*	*
4GG 4D 4A	4ddn	4dn	.
=34	=34	=34	=34
4r	8.ddnL	8ccL	.
.	.	8bn	.
.	16ddJk	.	.
*ped	*	*	*
4GG 4Dn 4Bn	4dd	8an	.
.	.	8bJ	.
*Xped	*	*	*
4GG 4D 4B	4gg)	4g^	.
=35	=35	=35	=35
4r	(2g	8fL	.
.	.	8en	.
*ped	*	*	*
4GG 4C 4B-	.	8dn	.
.	.	8eJ	.
*Xped	*	*	*
4GG 4C 4B-	4cc)	4c	.
!!LO:LB:g=original
=36	=36	=36	=36
4r	(8.ccL	8b-L	.
.	.	8a-	.
.	16ccJk	.	.
*ped	*	*	*
4FF 4C 4A-	4cc	8g	.
.	.	8a-J	.
*Xped	*	*	*
4FF 4C 4A-	4ff)	4f^	.
*	*v	*v	*
=37	=37	=37
4r	(>8fL	.
.	8e-J	.
4FF 4C	4A- 4d-X	<
4FF 4C	8A-L	.
.	8B-J	.
=38	=38	=38
*^	*	*
4rA	4rEE	2c)	.
4En 4G	4CC 4C	.	.
4E 4G	4CC 4C	(4c	.
=39	=39	=39	=39
4r	4r	8fL	.
.	.	8e-XJ	.
4ryy	4DD- 4AA-	4F< 4d-	.
4F\	4DD- 4AA-	8A-<L	.
.	.	8B-<J	.
=40	=40	=40	=40
4r	4r	2c	.
4E-X 4A-	4AAA- 4AA-	.	.
4E- 4A-	4AAA- 4AA-	4c	[
*v	*v	*	*
=41	=41	=41
.	(>8qc	.
*ped	*	*
4EEn	4dd-))	f
4B- 4c 4g	[2dd-	>
*Xped	*	*
4B- 4c 4g	.	.
!!LO:LB:g=original
=42	=42	=42
*ped	*	*
4FF	(8dd-L]	.
.	8cc	.
4A- 4f	8b-	.
.	8a-	.
4A- 4c	8g	.
*Xped	*	*
.	8fJ	]
=43	=43	=43
*ped	*	*
4C	8gL	.
.	8cJ	.
4B- 4en	4.cc	.
4B- 4c 4e	.	.
*Xped	*	*
.	8g	.
=44	=44	=44
*ped	*	*
4FF	8.a-L	.
.	16ccJk	.
4A- 4c 4f	[2ff)	.
*Xped	*	*
4A- 4d- 4f	.	.
=45	=45	=45
*ped	*	*
4GG	4ff]	.
4E- 4B- 4d-	4.ff	.
4E- 4B- 4d-	.	.
*Xped	*	*
.	([8ff	.
=46	=46	=46
*ped	*	*
4AA-	8ffL]	.
.	8ee-	.
4E- 4c	8dd-	.
.	8cc	.
4r	8b-	.
*Xped	*	*
.	8a-J	.
!!LO:LB:g=original
=47	=47	=47
*ped	*	*
4BB-	8a--L	.
.	8g-	.
*Xped	*	*
4G- 4d-	8b-	.
.	8f	.
4B- 4d-	8a-	.
.	8g-J	.
=48	=48	=48
*ped	*	*
4C	8fL	.
.	8enJ	.
4Gn 4en	2c)	.
*Xped	*	*
4G 4e	.	.
=49	=49	=49
*ped	*	*
.	(>8qc	.
4CC	4dd-)	.
4B- 4en	[2dd-	>
*Xped	*	*
4B- 4e	.	.
=50	=50	=50
*ped	*	*
4C	(>8dd-L]	.
.	8cc	]
4A- 4c 4f	8b-M	.
.	8a-	.
4A- 4c	8g	.
*Xped	*	*
.	8fJ	.
=51	=51	=51
*ped	*	*
4CC	8gL	.
.	8cJ	.
4B- 4en	4.cc	.
4B- 4e	.	.
*Xped	*	*
.	8g	.
!!LO:LB:g=original
=52	=52	=52
*ped	*	*
4FF	8anL	.
.	8ccJ	.
4F 4e-	4.ff	.
4F 4An 4e-	.	.
*Xped	*	*
.	8een	.
=53	=53	=53
*ped	*	*
4BB-	8ee-XL	.
.	8ddn	.
*Xped	*	*
4F 4G 4d- 4f	8dd-	.
.	8an	.
4r	8b-	.
.	8bnJ	.
=54	=54	=54
*ped	*	*
4C	8dd-L	.
.	(8qee-	.
.	8dd-)	.
*Xped	*	*
4A- 4c 4f	8cc	.
.	8g	.
4r	8a-	.
.	8bnJ	.
=55	=55	=55
*ped	*	*
4CC	8dd-L	.
.	8cc	.
4G 4en	8bn	.
.	8f#	.
*Xped	*	*
4B- 4c 4e	8g	.
.	8b-J	.
=56	=56	=56
*^	*	*
4rA	(>2.FF	8anL	.
.	.	8a-J	.
2C 2A-)	.	2fn)	.
*v	*v	*	*
==	==	==
*-	*-	*-
!!!SMS: Mikuli edition, G. Schirmer (1894-1898)
!!!ENC: Craig Stuart Sapp
!!!END: 2005/03/04/
!!!EEV: 2020/03/29/
!!!RDF**kern: > = above
!!!RDF**kern: < = below
